X:58
T:Old John Tate
T:Land of Lincoln
K:Dm
M:4/4
L:1/8
Z:abc-transcription Josh Larios <hades@elsewhere.org>, 2014.04.15
B:Sarah Comer, Dusty Strings dance band class.
|:"Dm"A2d2d3c | d2c2AGFD | "F"FGFD "C"EFEC | "Dm"DFEC "A"DCA,G, |
"Dm"A,2d2d3c | d2c2AGFD | "F"FGFD "C"EFEC | "A"DCA,C "Dm"D2D2 :|
|:"Dm"D2A,2A,3A, | DCDE FGA2 | D2A,2A,3D | "C"FGFD "A"EDC2 |
"Dm"D2A,2A,3A, | DCDE FEFG | "F"A2G2 "C"FEDF | "A"EDC2 "Dm"D3D :|

